X:1
T:Title
%%score { ( 1 3 ) | ( 2 4 ) }
L:1/8
Q:1/4=100
M:3/4
K:Eb
V:1 treble nm="Grand Piano"
V:3 treble 
V:2 bass 
V:4 bass 
V:1
 E3 D E2 | [DF]2 [CE]2 [DF]2 |[M:7/8] G2 e3 c2 |[M:3/4] B2 G4 | E3 F G2 | c2 B2 G2 | F2 C2 F2 | %7
w: J.~Lincoln~Hall * *|||||||
 [DF]6 | E3 D E2 | [DF]2 [CE]2 [DF]2 |[M:7/8] [EG]2 [_Ge]3 [Gc]2 |[M:3/4] [GB]2 G4 | c3 d e2 | %13
w: ||||||
 e2 B2 G2 |[M:7/8] F3 E [DF]3 |[M:3/4] [B,E]4 [EB]2 | [DB]3 [_DB] [EB]2 | [CAB]2 [B,GB]2 [=EB]2 | %18
w: |||||
 B6- | B6 |[M:5/16] D-[DF]3/2 |[M:3/4] E3 F E2 | E2 G2 [GB]2 | A2 c2 e2 | e4 dc | B2 A2 G2 | %26
w: ||||||||
 [DF]3 [CE] [DF]2 |[M:2/4] [EG]4 |[M:1/4] [DG][DF] |[M:3/4] E3 F E2 | E2 G2 [GB]2 | A2 c2 e2 | %32
w: ||||||
[M:4/4] e6 dc |[M:3/4] B2 e2 G2 | [A,DF]3 [G,CE] [A,DF]2 |[M:2/4] [G,B,E]4 |[M:1/4] BB | %37
w: |||||
[M:3/4] [GB]2 G2 B2 | e4 BB | [Ac]2 A2 c2 | e4 dc | [GB]2 A2 G2 | [CF]3 E F2 | [B,G]6 | %44
w: |||||||
[M:1/4] [DG][DF] |[M:3/4] E3 F E2 | E2 G2 [GB]2 | A2 c2 e2 |[M:4/4] e6 dc |[M:3/4] B2 e2 G2 | %50
w: ||||||
 [DF]3 [CE] [DF]2 |[M:6/4] .[B,E]6 z6 |] %52
w: ||
V:2
 [E,G,B,]3 [E,F,B,] [E,G,B,]2 | [B,,B,]2 [C,G,]2 [B,,B,]2 |[M:7/8] [E,B,E]2 [G,B,E]3 [A,E]2 | %3
[M:3/4] [E,G,E]2 [E,B,E]4 | [G,B,]3 [F,B,D] [E,B,E]2 | [A,E]2 [G,B,E]2 [E,B,E]2 | %6
 [F,=A,C]2 [F,A,]2 [F,A,E]2 | [B,,B,]6 | [E,G,B,]3 [E,F,B,] [E,G,B,]2 | [B,,B,]2 [C,G,]2 [B,,B,]2 | %10
[M:7/8] [E,B,]2 [E,=A,]3 [E,A,]2 |[M:3/4] [E,B,]2 [E,B,E]4 | [A,E]3 [A,B,E] [A,CE]2 | %13
 [G,B,E]2 [G,B,E]2 [E,B,E]2 |[M:7/8] [F,=A,C]3 [F,A,C] [B,,_A,]3 |[M:3/4] [E,G,]4 [E,G,]2 | %16
 [B,,F,]3 [B,,=E,] [B,,F,]2 | B,,2 B,,2 [B,,G,]2 | z6 | D6 |[M:5/16] z A,3/2 | %21
[M:3/4] [E,G,B,]3 [E,A,B,] [E,G,B,]2 | [E,G,B,]2 [E,B,E]2 [E,_D]2 | [A,CE]2 [A,EA]2 [A,CA]2 | %24
 [=A,C_G]4 [A,G]-[A,EG] | [B,EG]2 [CE]2 [B,E]2 | [B,,A,]3 [C,G,] [B,,B,]2 |[M:2/4] [E,B,]4 | %28
[M:1/4] [B,,B,][B,,A,] |[M:3/4] [E,G,B,]3 [E,A,B,] [E,G,B,]2 | [E,G,B,]2 [E,B,E]2 [E,_D]2 | %31
 [A,CE]2 [A,EA]2 [CEA]2 |[M:4/4] [=B,E_G]6 [=A,DG][_A,EG] |[M:3/4] [B,EG]2 [B,EG]2[K:bass] [B,E]2 | %34
 B,,3 C, B,,2 |[M:2/4] E,4 |[M:1/4][K:treble] GG |[M:3/4][K:bass] z2 E2 G2 | G4[K:treble] GG | %39
 z2 E2 A2 | c4[K:treble] BA | z2 D2 B,2 | z2 z C C2 | [G,,G,]6 |[M:1/4] [B,,B,][B,,A,] | %45
[M:3/4] [E,G,B,]3 [E,A,B,] [E,G,B,]2 | [E,G,B,]2 [E,B,E]2 [E,_D]2 | [A,CE]2 [A,EA]2 [CEA]2 | %48
[M:4/4] [=B,E_G]6 [=A,DG][_A,EG] |[M:3/4] [B,EG]2 [B,EG]2[K:bass] [B,E]2 | %50
 [B,,A,]3 [C,G,] [B,,A,]2 |[M:6/4] .[E,G,]6 z6 |] %52
V:3
 x6 | x6 |[M:7/8] x7 |[M:3/4] x6 | x6 | x6 | x6 | x6 | x6 | x6 |[M:7/8] x7 |[M:3/4] x6 | x6 | x6 | %14
[M:7/8] x7 |[M:3/4] x6 | x6 | x6 | F6 | x6 |[M:5/16] [B,G] z/ z |[M:3/4] x6 | x6 | x6 | x6 | x6 | %26
 x6 |[M:2/4] x4 |[M:1/4] x2 |[M:3/4] x6 | x6 | x6 |[M:4/4] x8 |[M:3/4] x6 | x6 |[M:2/4] x4 | %36
[M:1/4] x2 |[M:3/4] x6 | x6 | x6 | x6 | x6 | x6 | x6 |[M:1/4] x2 |[M:3/4] x6 | x6 | x6 | %48
[M:4/4] x8 |[M:3/4] x6 | x6 |[M:6/4] x12 |] %52
V:4
 x6 | x6 |[M:7/8] x7 |[M:3/4] x6 | x6 | x6 | x6 | x6 | x6 | x6 |[M:7/8] x7 |[M:3/4] x6 | x6 | x6 | %14
[M:7/8] x7 |[M:3/4] x6 | x6 | x6 | [B,,A,]6- | [B,,A,]6 |[M:5/16] B,,/-B,,-<B,, |[M:3/4] x6 | x6 | %23
 x6 | z2 z2 .D2 | x6 | x6 |[M:2/4] x4 |[M:1/4] x2 |[M:3/4] x6 | x6 | x6 |[M:4/4] x8 | %33
[M:3/4] x4[K:bass] x2 | x6 |[M:2/4] x4 |[M:1/4][K:treble] x2 |[M:3/4][K:bass] E,,6- | %38
 E,,6[K:treble] | A,,6- | A,,6[K:treble] | E,,6 | [A,,E,]6 | x6 |[M:1/4] x2 |[M:3/4] x6 | x6 | x6 | %48
[M:4/4] x8 |[M:3/4] x4[K:bass] x2 | x6 |[M:6/4] x12 |] %52

